X: 38367
T: Standing Abbey, The
R: hornpipe
M: 4/4
K: Gmajor
|:GFGB dgfg|e2ce dBGB|c2Ac BAGB|ADFA dcBA|
GFGB dgfg|e2ce dBGB|cBAc BG~G2|1 ADFA G2BA:|2 ADFA G3z||
d^cdf afdf|a^gab a=gfe|defg ~a3b|agfe dcBA|
GFGB dgfg|e2ce dBGB|cBAc BG~G2|ADFA G3z|
d^cdf afdf|a^gab a=gfe|defg abc'b|agfe dcBA|
GFGB dgfg|e2ce dBGB|cBAc BG~G2|ADFA G2BA||

